!!!OTL: Fa, Op. 38, No. 2
!!!OPR: Deuxi&egrave;me recueil de chants
!!!ODT: 1857
!!!COM: Alkan, Charles-Valentin
!!!CDT: 1813/11/30/-1888/02/29/
!!!OPS: Op. 38
!!!ONM: No. 2
!!!ONB: Without the Fa drone or off-beats in lower staff
**kern	**kern	**dynam
*staff2	*staff1	*staff1/2
*clefF4	*clefF4	*clefG2
*k[]	*k[]	*k[]
*M3/8	*M3/8	*M3/8
*MM72	*MM72	*MM72
!! Allegretto (M.M. 144 = dotted quarter)
!! error in tempo? maybe 144 = eighth note
=1-	=1-	=1-
4.r	4.r	<
=2	=2	=2
4.r	4.r	.
=3	=3	=3
4.r	4.r	>
=4	=4	=4
8r	8r	.
8r	8r	.
=	=	=
8r	16ee/LL	p
.	16cc/JJ	.
=5	=5	=5
8AA\LL	8a/L	.
8C\LL	8a/J	.
8E\LL	16b/LL	.
.	16cc/JJ	.
=6	=6	=6
8AA\LL	8a/L	.
8C\LL	8a/J	.
8E\LL	16ee/LL	.
.	16cc/JJ	.
=7	=7	=7
8AA\LL	8a/L	.
8C\LL	8a/J	.
8E\LL	16b/LL	.
.	16cc/JJ	.
=8	=8	=8
8AA\LL	8a/L	.
8C\LL	8a/J	.
8E\LL	16b/LL	.
.	16cc/JJ	.
=9	=9	=9
8G#\LL	8dd/L	.
8B\LL	8dd/J	.
8E\LL	16cc/LL	.
.	16b/JJ	.
=10	=10	=10
8A\LL	8cc/L	.
8E\LL	8cc/J	.
8A\LL	16b/LL	.
.	16cc/JJ	.
=11	=11	=11
8F\LL	8a/L	.
8A\LL	8a/J	.
8F\LL	16a/LL	.
.	16g#/JJ	.
=12	=12	=12
8E\LL	8b/L	.
8G#\LL	8b/J	.
=	=	=
8E\LL	16ee/LL	.
.	16cc/JJ	.
=13	=13	=13
8AA\LL	8a/L	.
8C\LL	8a/J	.
8E\LL	16b/LL	.
.	16cc/JJ	.
=14	=14	=14
8AA\LL	8a/L	.
8C\LL	8a/J	.
8E\LL	24dd#/LL	.
.	24ee/	.
.	24cc/JJ	.
=15	=15	=15
8AA\LL	8a/L	.
8C\LL	8a/J	.
8E\LL	24b/LL	.
.	24ddn/	.
.	24cc/JJ	.
=16	=16	=16
8AA\LL	8a/L	.
8C\LL	8a/J	.
8E\LL	16b/LL	.
.	16cc/JJ	.
=17	=17	=17
8G#\LL	8dd/L	.
8B\LL	8dd/J	.
8E\LL	16cc/LL	.
.	16b/JJ	.
=18	=18	=18
8A\LL	8cc/L	.
8E\LL	8cc/J	.
8A\LL	16cc/LL	.
.	16ee/JJ	.
=19	=19	=19
8D\LL	8a/L	.
8F\LL	8a/J	.
8A\LL	16a/LL	.
.	16g#/JJ	.
=20	=20	=20
8G#\LL	8b/L	.
8B\LL	8b/J	.
=	=	=
8Gn\LL	16ggn/LL	<
.	16ee/JJ	.
=21	=21	=21
8C\LL	8cc/L	.
8E\LL	8cc/J	.
8G\LL	16dd/LL	.
.	16ee/JJ	.
=22	=22	=22
8C\LL	8cc/L	.
8E\LL	8cc/J	.
8G\LL	24ff#/LL	.
.	24gg/	.
.	24ee/JJ	.
=23	=23	=23
8C\LL	8cc/L	.
8G\LL	8cc/J	.
8A-\LL	16dd/LL	.
.	16ee/JJ	.
=24	=24	=24
8C\LL	4cc/	.
8E\LL	.	.
8G\LL	16cc/LL	.
.	16ee/JJ	.
=25	=25	=25
8B-\LL	8gg/L	f
8B-\LL	8gg/	.
8B-\LL	8gg/J	.
=26	=26	=26
8B-\LL	8gg/L	>
8A\LL	8cc/	.
8A-\LL	8ff/J	.
=27	=27	=27
8G\LL	4ee/	.
8G\LL	.	.
8G\LL	16ee/LL	<
.	16dd/JJ	.
=28	=28	=28
8B-\LL	8gg/L	f
8B-\LL	8gg/	.
8B-\LL	8gg/J	.
=29	=29	=29
8B-\LL	8gg/L	>
8A\LL	16bn/L	.
.	16cc/	.
8A-\LL	16cc/	.
.	16ff/JJ	.
=30	=30	=30
8G\LL	4ee/	.
8GG\LL	.	.
8G\LL	16ee/LL	.
.	16dd/JJ	.
=31	=31	=31
8C\LL	4cc/	.
8E\LL	.	.
8G\LL	16cc/LL	p
.	16dd/JJ	.
=32	=32	=32
8G#\LL	4ee/	.
8B\LL	.	.
8E\LL	16b/LL	.
.	16cc/JJ	.
=33	=33	=33
8A\LL	4a/	.
8E\LL	.	.
8A\LL	16cc/LL	.
.	16ee/JJ	.
=34	=34	=34
8A#\LL	4ff/	.
8E\LL	.	.
8A#\LL	16cc/LL	.
.	16dd/JJ	.
=35	=35	=35
8E\LL	4b/	.
8B\LL	.	.
8E\LL	16dd/LL	.
.	16ff/JJ	.
=36	=36	=36
8B\LL	4gg#/	.
8E\LL	.	.
8B\LL	16dd/LL	.
.	16ff/JJ	.
=37	=37	=37
8A\LL	4aa/	.
8E\LL	.	.
8A\LL	16cc/LL	.
.	16ee/JJ	.
=38	=38	=38
8F\LL	8a/L	>
8A\LL	8.a/	.
8F\LL	.	.
.	16g#/Jk	.
=39	=39	=39
8E\LL	4b/	.
8G#\LL	.	.
8E\LL	8b#/	.
=40	=40	=40
8AA\LL	4cc#/	p
8C#\LL	.	.
8E\LL	8ff/	.
=41	=41	=41
8G#\LL	4ee/	.
8B\LL	.	.
8E\LL	8b#/	.
=42	=42	=42
8AA\LL	4cc#/	.
8C#\LL	.	.
8E\LL	8ff/	.
=43	=43	=43
8G#\LL	4ee/	.
8B\LL	.	.
8E\LL	8b#/	.
=44	=44	=44
8AA\LL	8cc#/L	.
8C#\LL	8ee/	.
8E\LL	8aa/J	.
=45	=45	=45
8D\LL	4aa/	.
8F\LL	.	.
8A\LL	16ff/LL	.
.	16dd/JJ	.
=46	=46	=46
8BB\LL	4b/	.
8F\LL	.	.
8A\LL	24ddn/LL	.
.	24ccn/	.
.	24b/JJ	.
=47	=47	=47
8G#\LL	4b/	.
8B\LL	.	.
8E\LL	8b#/	.
=48	=48	=48
8AA\LL	4cc#/	.
8C#\LL	.	.
8E\LL	8ff/	.
=49	=49	=49
8G#\LL	4ee/	.
8B\LL	.	.
8E\LL	8b#/	.
=50	=50	=50
8AA\LL	8cc#/L	.
8C#\LL	16aa/L	.
.	16gg#/	.
8E\LL	16aa/	.
.	16cc#/JJ	.
=51	=51	=51
8G#\LL	8.ee/L	.
8B\LL	.	.
.	16dd#/k	.
8E\LL	8ddn/J	.
=52	=52	=52
8AA\LL	8cc#/L	.
8BB\LL	8dd/	.
8BB#\LL	8dd#/J	.
=53	=53	=53
8C#\LL	8ee/L	.
8D\LL	8ff/	.
8F\LL	8a/J	.
=54	=54	=54
8E\LL	4cc#/	.
8A\LL	.	.
8E\LL	16cc#/LL	.
.	16b/JJ	.
=55	=55	=55
8AA\LL	16b#/LK	.
.	8cc#/	.
8BB\LL	.	.
.	8dd/	<
8BB#\LL	.	.
.	[16dd#/Jk	.
=56	=56	=56
8C#\LL	16dd#/LK]	.
.	8ee/	.
8E\LL	.	.
.	8aa/	.
8A\LL	.	.
.	[16cc#/Jk	.
=57	=57	=57
8D\LL	16cc#/LK]	.
.	8ff/	.
8F\LL	.	.
.	8b-/	.
8B-\LL	.	.
.	16dd/Jk	.
=58	=58	=58
8E\LL	16r	>
.	8cc#/L	.
8E\LL	.	.
.	8cc#/	.
8E\LL	.	.
.	16bn/Jk	.
=59	=59	=59
8AA\LL	4a/	.
8C#\LL	.	.
8E\LL	16a/LL	p
.	16b-/JJ	.
=60	=60	=60
8A\LL	4ccn/	.
8F\LL	.	.
8A\LL	16dd/LL	.
.	16ee-/JJ	.
=61	=61	=61
8BB-\LL	4ff/	.
8D\LL	.	.
8F\LL	16ee-/LL	.
.	16dd/JJ	.
=62	=62	=62
8G-\LL	4cc/	.
8F\LL	.	.
8G-\LL	16dd/LL	.
.	16cc/JJ	.
=63	=63	=63
8BB-\LL	4b-/	.
8D\LL	.	.
8F\LL	16a/LL	.
.	16b-/JJ	.
=64	=64	=64
8G-\LL	16bn/LK	.
.	8.cc/J	.
8F\LL	.	.
8G-\LL	16dd/LL	.
.	16ee-/JJ	.
=65	=65	=65
8BB-\LL	16een/LK	.
.	8.ff/J	.
8D\LL	.	.
8F\LL	16dd/LL	.
.	16cc/JJ	.
=66	=66	=66
8G-\LL	16cc/LK	.
.	8.b-/J	.
8B-\LL	.	.
8G-\LL	16a/LL	.
.	16b-/JJ	.
=67	=67	=67
8G-\LL	16bn/LK	.
.	8.cc/J	.
8F\LL	.	.
8E-\LL	16dd/LL	.
.	16ee-/JJ	.
=68	=68	=68
8A-\LL	8ff/L	.
8A-\LL	8ff/	.
8A-\LL	8ff/J	.
=69	=69	=69
8A-\LL	8ff/L	.
8G\LL	8ee-/	.
8G-\LL	8b-/J	.
=70	=70	=70
8F\LL	4dd/	.
8F\LL	.	.
8F\LL	16dd/LL	.
.	16cc/JJ	.
=71	=71	=71
8BB-\LL	16b-/LL)	.
.	16a/	.
8D\LL	16b-/	.
.	16cc/	.
8F\LL	16dd/	.
.	16ee-/JJ	.
=72	=72	=72
8A-\LL	16een'/LL	.
.	16ff'/	.
8A-\LL	16ee'/	.
.	16ff'/	.
8A-\LL	16ee'/	.
.	16ff'/JJ	.
=73	=73	=73
8A-\LL	16ee/LL	.
.	16ff/	.
8G\LL	16ff/	.
.	16b-/	.
8G-\LL	16b-/	.
.	16cc/JJ	.
=74	=74	=74
8F\LL	16cc#/LL	.
.	16dd/	.
8F\LL	16cc#/	.
.	16dd/	.
8F\LL	16ee-/	.
.	16a/JJ	.
=75	=75	=75
8BB-\LL	4b-/	.
8D\LL	.	.
8F\LL	16b-/LL	.
.	16cc/JJ	.
=76	=76	=76
8G\LL	4dd-/	p
8E-\LL	.	.
8G\LL	16cc/LL	.
.	16b-/JJ	.
=77	=77	=77
8A-\LL	4a-/	.
8E-\LL	.	.
8A-\LL	16b-/LL	.
.	16cc/JJ	.
=78	=78	=78
8G\LL	16ee-/LL	.
.	16ddn/	.
8B-\LL	16dd-/	.
.	16cc/	.
8E-\LL	16b-/	.
.	16cc/JJ	.
=79	=79	=79
8A-\LL	4a-/	.
8E-\LL	.	.
8A-\LL	16cc/LL	<
.	16ddn/JJ	.
=80	=80	=80
8An\LL	4ee-/	.
8F\LL	.	.
8A\LL	16dd/LL	.
.	16cc/JJ	.
=81	=81	=81
8B-\LL	4b-/	.
8F\LL	.	.
8B-\LL	16cc/LL	.
.	16dd/JJ	.
=82	=82	=82
8A\LL	16ff/LL	.
.	16een/	.
8c\LL	16ee-/	.
.	16dd/	.
8F\LL	16cc/	.
.	16dd/JJ	.
=83	=83	=83
8B-\LL	4b-/	.
8F\LL	.	.
8B-\LL	16dd/LL	.
.	16een/JJ	.
=84	=84	=84
8Bn\LL	4ff/	.
8G\LL	.	.
8B\LL	16dd/LL	.
.	16ee/JJ	.
=85	=85	=85
8c\LL	4cc/	.
8G\LL	.	.
8c\LL	16ee/LL	.
.	16ff/JJ	.
=86	=86	=86
8c#\LL	4gg/	.
8A\LL	.	.
8c#\LL	16ee/LL	.
.	16ff/JJ	.
=87	=87	=87
8d\LL	4dd/	<
8A\LL	.	.
8d\LL	16ff/LL	.
.	16gg/JJ	.
=88	=88	=88
8F\LL	4aa/	f
8A\LL	.	.
8F\LL	16ee-/LL	.
.	16ff/JJ	.
=89	=89	=89
8A\LL	4gg-/	.
8F\LL	.	.
8A\LL	16bn/LL	.
.	16cc/JJ	.
=90	=90	=90
8FF\LL	8dd#/L	.
8A\LL	16a/L	.
.	16b/J	.
8F\LL	8cc/J	.
=91	=91	=91
8A\LL	16f/LL	.
.	16g#/J	.
8F\LL	8.a/	.
8A\LL	.	.
.	16g#/Jk	.
=92	=92	=92
8E\LL	4b/	>
8E\LL	.	.
8E\LL	8b/	.
=93	=93	=93
8E\LL	4a#/	.
8E\LL	.	.
8E\LL	8an/	.
=94	=94	=94
8E\LL	4g#/	.
8E\LL	.	.
8E\LL	8gn/ 8ee/	.
=95	=95	=95
8E\LL	(4f#/	.
8E\LL	.	.
8E\LL	8ee/)	.
=96	=96	=96
8E\LL	8f\L	<
8E\LL	8f\	.
8E\LL	8f\J	.
=97	=97	=97
8E\LL	8f\L	.
8E\LL	8f\	.
8E\LL	8f\J	.
=98	=98	=98
8E\LL	8e/ 8b/L	.
8E\LL	8e/ 8b/	.
8E\LL	8e/ 8b/J	.
=99	=99	=99
8E\LL	8e/ 8b/L	.
8E\LL	8e/ 8b/J	.
8E\LL	16e/ 16b/ 16ee/LL	ff
.	16cc/JJ	.
=100	=100	=100
8AA\LL	8a/L	.
8C\LL	8a/J	.
8E\LL	16b/LL	.
.	16cc/JJ	.
=101	=101	=101
8AA\LL	8a/L	.
8C\LL	8a/J	.
8E\LL	32dd#/LLL	.
.	32aa/	.
.	32cc/	.
.	32ee/JJJ	.
=102	=102	=102
8AA\LL	8a/L	.
8C\LL	8a/J	.
8E\LL	32a#/LLL	.
.	32dd/	.
.	32b/	.
.	32cc/JJJ	.
=103	=103	=103
8AA\LL	8an/L	.
8C\LL	8a/J	.
8E\LL	16b/LL	.
.	16cc/JJ	mf
=104	=104	=104
8G#\LL	8dd/L	.
8B\LL	8dd/J	.
8E\LL	16cc/LL	.
.	16b/JJ	.
=105	=105	=105
8A\LL	8cc/L	.
8E\LL	8cc/J	.
8A\LL	16b/LL	.
.	16cc/JJ	.
=106	=106	=106
8G#\LL	8dd/L	.
8B\LL	8dd/J	.
8E\LL	16cc/LL	.
.	16b/JJ	.
=107	=107	=107
8A\LL	8ee/L	.
8E\LL	8ee/J	.
8A\LL	16dd/LL	.
.	16cc/JJ	.
=108	=108	=108
8B\LL	8ff/L	.
8E\LL	8ff/J	.
8B\LL	16ee/LL	.
.	16dd/JJ	.
=109	=109	=109
8B-\LL	8gg/L	f
8B-\LL	8gg/	.
8B-\LL	8gg/J	.
=110	=110	=110
8B-\LL	8gg/L	.
8A\LL	8ff/	.
8F\LL	8a/J	.
=111	=111	=111
8E\LL	4cc/	.
8E\LL	.	.
8E\LL	16cc/LL	.
.	16b/JJ	.
=112	=112	=112
8B-\LL	8gg/L	.
8B-\LL	8gg/	.
8B-\LL	8gg/J	.
=113	=113	=113
8B-\LL	16gg/LL	.
.	16ff#/	.
8A\LL	16ffn/	.
.	16dd/	.
8F\LL	16a/	.
.	16b/JJ	.
=114	=114	=114
8E\LL	8cc/L	.
8E\LL	8cc/J	.
8E\LL	16cc/LL	.
.	16b/JJ	.
=115	=115	=115
8AA\LL	4a/	.
8C\LL	.	.
8E\LL	16ee/LL	.
.	16cc/JJ	.
=116	=116	=116
8G#\LL	4b/	.
8B\LL	.	.
8E\LL	16ee/LL	.
.	16cc/JJ	.
=117	=117	=117
8AA\LL	4a/	.
8C\LL	.	.
8E\LL	16ee/LL	.
.	16cc/JJ	.
=118	=118	=118
8G#\LL	4b/	.
8B\LL	.	.
8E\LL	16ee/LL	.
.	16cc/JJ	.
=119	=119	=119
8AA\LL	4a/	.
8C\LL	.	.
8E\LL	16ee/LL	.
.	16cc/JJ	.
=120	=120	=120
8C#\LL	8aa/L	p
8C#\LL	8aa/	.
8C#\LL	8aa/J	.
=121	=121	=121
8C#\LL	8aa/L	.
8D\LL	8ff/	.
8F\LL	8a/J	.
=122	=122	=122
8F\LL	4cc/	.
8E\LL	.	.
8Dn\LL	16cc/LL	.
.	16b/JJ	.
=123	=123	=123
8C#\LL	8aa/L	.
8C#\LL	8aa/	.
8C#\LL	8aa/J	.
=124	=124	=124
8C#\LL	16aa/LL	.
.	16gg#/	.
8D\LL	16ggn/	.
.	16ff#/	.
8F\LL	16ffn/	.
.	16a/JJ	.
=125	=125	=125
8F\LL	24cc/LL	.
.	24b-/	.
.	24dd/JJ	.
8E-\LL	40cc#/LLL	.
.	40ee-/	.
.	40dd/	.
.	40een/	.
.	40dd#/JJJ	.
8En\LL	32ff/LLL	.
.	32g#/	.
.	32ddn/	.
.	32ccn/JJJ	.
=126	=126	=126
8AA\LL	4a/	>
8E\LL	.	.
8AA\LL	(8ee/	.
=127	=127	=127
8E\LL	4dd#/	.
8AA\LL	.	.
8E\LL	8ddn/	.
=128	=128	=128
8AA\LL	4cc#/)	.
8E\LL	.	.
8AA\LL	(8ee/	.
=129	=129	=129
8E\LL	4dd#/	.
8AA\LL	.	.
8E\LL	8ddn/	.
=130	=130	=130
8AA\LL	4cc#/)	.
8E\LL	.	.
8AA\LL	(8ee/	.
=131	=131	=131
8E\LL	4dd#/	.
8AA\LL	.	.
8E\LL	8ddn/	.
=132	=132	=132
8AA\LL	[4.aa/)	.
8D\LL	.	.
8C#\LL	.	.
=133	=133	=133
*^	*	*
*	*	*	*
8F\LL	8F/	4.aa/_	.
8E\LL	8E/	.	.
8A\LL	8A/	.	.
=134	=134	=134	=134
8G\LL	8G/	4aa/]	.
8E\LL	8E/	.	.
8F\LL	8F/	8r	.
*v	*v	*	*
*	*	*
=135	=135	=135
8C#\LL	4.r	.
8D\LL	.	.
8GG#\LL	.	.
=136	=136	=136
8AA\LL	4.r	.
8r	.	.
8r	.	.
=137	=137	=137
4.r	4.r	.
=138	=138	=138
8AA\	4.r	pp
8r	.	.
8r	.	.
=139	=139	=139
4.r	4.r	.
=140	=140	=140
8AAA\ 8AA\	4.r	ppp
8r	.	.
8r	.	.
=141	=141	=141
4.r;	4.r;	.
==	==	==
*-	*-	*-
!!!ENC: Craig Stuart Sapp
!!!END: 2008/06/19/
